X: 9907
T: Desmond, The
R: slide
M: 12/8
K: Dmajor
|:GFE|D2F A2F G2A B3|gfe dcB A3 F2E|
D2F A2F G2A B3|=cBA GFE D3:|
|:d2e|f2d A2F G2A B3|gfe dcB A3 d2e|
f2d A2F G2A B3|=cBA GFE D3:|

